X: 1596
T: Jimmy Jeffries' Schottische
B: australian traditional tunes wiki
M:4/4
L:1/8
R: Schottische
Q: 1/4=100
K:D
V:1 
(3ABc|"D"d2 d2-d>c B>A|"A7"c>B c>d c>B A>F|"G"G2G2-G>B A>G|"D"F6(3ABc|
"D"d2 d2-d>c B>A|"A7"c>B c>d c>B A>c|e>c A>c e>c (3ABc|"D"d6 F>E||
"D"D>F (3ABc d2 A>d|"A7"(3cdc A>F E2-E>D|C>D E>F "G"B2-B>c|"D"B<A D>F "A7"A2 F>E|
"D"D>F (3ABc d2 A>d|"A7"(3cdc A>F E2-E>d|c>B c>d c>B (3ABc|"D"d6||
% abcbook-tune_id 6342d53af9c76de38ae2286c


% abcbook-boost 0
% abcbook-tablature 
% abcbook-transpose 
% abcbook-lastupdated 1665324373074
% abcbook-soundfonts 
% abcbook-repeats 1
% NFF Book 2009

